X:7
T:Lichtmann 7
C:G. Holst
M:3/4
L:1/8
Q:"Adagio" 1/4=72
K:C
!mf!(E"_sostenuto"G)|A2(Ac) B>G|(cd) c2B2|(AB) A2G2|E4(EG)|A2 (Ac) B>G|
(cd) e2 e2|(ed) c2 d2|c4 (GE)||D2D2(CE)|D2G,2(GE)|D2D2(EG)|A4 (AB)|
c2B2A2|G2c2E2|(DC) D2E2|G4 (EG)|A2 (Ac) B>G|(cd) c2B2|
(AB) A2G2|E4(EG)|A2 (Ac) B>G|(cd) e2e2|(e"_molto rit."d) c2d2|c4|]

